.local/share/icons/Gruvbox-Plus-Dark/actions/16/format-text-remove-formatting.svg

<svg xmlns="http://www.w3.org/2000/svg" width="16" height="16" viewBox="0 0 16 16">
 <defs>
  <style id="current-color-scheme" type="text/css">
   .ColorScheme-Text { color:#ebdbb2; } .ColorScheme-Highlight { color:#458588; }
  </style>
 </defs>
 <path style="fill:currentColor" class="ColorScheme-Text" d="M 2.3398438 0.9375 L 0.93359375 2.34375 L 5.6269531 7.0371094 C 4.8624431 7.1255094 4.1894937 7.46474 3.7460938 7.96875 C 3.2316937 8.55354 2.9897037 9.2794 2.9960938 10 C 3.0020937 10.72062 3.2650238 11.45275 3.7773438 12.03125 C 4.2896637 12.60979 5.0877938 13 5.9960938 13 L 11.589844 13 L 13.652344 15.0625 L 15.058594 13.65625 L 2.3398438 0.9375 z M 6.4023438 3 L 8.4023438 5 L 9.9960938 5 C 10.424254 5 10.996094 5.61414 10.996094 6 L 10.996094 7 L 10.402344 7 L 12.996094 9.59375 L 12.996094 6 C 12.996184 4.3657 11.676294 3 9.9960938 3 L 6.4023438 3 z M 5.9960938 9 L 7.5898438 9 L 9.5898438 11 L 5.9960938 11 C 5.5982237 11 5.4291837 10.89021 5.2773438 10.71875 C 5.1255038 10.54729 4.9985737 10.27938 4.9960938 10 C 4.9940937 9.72062 5.1007637 9.44646 5.2460938 9.28125 C 5.3914238 9.11604 5.5737337 9 5.9960938 9 z"/>
</svg>

<svg width="16" height="16" version="1.1" xmlns="http://www.w3.org/2000/svg">
  <defs>
    <style id="current-color-scheme" type="text/css">.ColorScheme-Text { color:#ebdbb2; } .ColorScheme-Highlight { color:#458588; }</style>
  </defs>
  <path class="ColorScheme-Text" d="m5.707 3 2 2h2.293c0.43 0 1 0.61 1 1v1h-1.293l3.293 3.293v-4.293c0-1.63-1.32-3-3-3zm-1.139 4.336c-0.3193 0.1628-0.5979 0.3797-0.8184 0.6348-0.51 0.58-0.75 1.309-0.75 2.029s0.2693 1.449 0.7793 2.029 1.311 0.9707 2.221 0.9707h4.232l-2-2h-2.232c-0.4 0-0.5707-0.1093-0.7207-0.2793s-0.2793-0.4407-0.2793-0.7207 0.1-0.5507 0.25-0.7207c0.15-0.16 0.33-0.2793 0.75-0.2793h0.2305z" fill="currentColor" opacity=".3"/>
  <path class="ColorScheme-Text" d="m2.414 1-1.414 1.414 12.59 12.59 1.414-1.414z" fill="currentColor"/>
</svg>
